X:646
T:Polska # 646
S:efter Anders Gustaf Andersson
B:Sörmlands musikarkiv - Anders Gustaf Andersson, Nora (pdf), nr 646
O:Mörkö, Södermanland
R:Slängpolska
M:3/4
L:1/16
K:A
Q:110
E4 A2E2 A2c2 | c2Bc B2AB c2A2 | E4 A2E2 A2c2 | c2Bc B4A4 :|
|: e2a2 a2fa f2d2 | d2f2 f2{gf}ef e2c2 | A2c2 efec d2B2 | G2B2 BcBA B2c2 |
e2a2 a2{ba}fa f2d2 | d2f2 f2ef e2c2 | A2c2 efec d2B2 | G2BB B2{cB}A2 A4 :|

